resources/icons/folder_mvnw_dark.svg

<?xml version="1.0" encoding="UTF-8" standalone="no"?>
<!-- Created with Inkscape (http://www.inkscape.org/) -->

<svg
   xmlns:dc="http://purl.org/dc/elements/1.1/"
   xmlns:cc="http://creativecommons.org/ns#"
   xmlns:rdf="http://www.w3.org/1999/02/22-rdf-syntax-ns#"
   xmlns:svg="http://www.w3.org/2000/svg"
   xmlns="http://www.w3.org/2000/svg"
   xmlns:sodipodi="http://sodipodi.sourceforge.net/DTD/sodipodi-0.dtd"
   xmlns:inkscape="http://www.inkscape.org/namespaces/inkscape"
   width="16"
   height="16"
   viewBox="0 0 16 16"
   version="1.1"
   id="svg8"
   inkscape:version="0.92.4 (5da689c313, 2019-01-14)"
   sodipodi:docname="folder_mvnw.svg">
  <defs
     id="defs2" />
  <sodipodi:namedview
     id="base"
     pagecolor="#ffffff"
     bordercolor="#666666"
     borderopacity="1.0"
     inkscape:pageopacity="0.0"
     inkscape:pageshadow="2"
     inkscape:zoom="9.95"
     inkscape:cx="-15.182322"
     inkscape:cy="14.482824"
     inkscape:document-units="mm"
     inkscape:current-layer="layer1"
     showgrid="false"
     inkscape:window-width="1920"
     inkscape:window-height="1001"
     inkscape:window-x="-9"
     inkscape:window-y="-9"
     inkscape:window-maximized="1" />
  <metadata
     id="metadata5">
    <rdf:RDF>
      <cc:Work
         rdf:about="">
        <dc:format>image/svg+xml</dc:format>
        <dc:type
           rdf:resource="http://purl.org/dc/dcmitype/StillImage" />
        <dc:title></dc:title>
      </cc:Work>
    </rdf:RDF>
  </metadata>
  <g
     inkscape:label="Layer 1"
     inkscape:groupmode="layer"
     id="layer1">
    <text
       xml:space="preserve"
       style="font-style:normal;font-weight:normal;font-size:38.08229828px;line-height:1.25;font-family:sans-serif;letter-spacing:0px;word-spacing:0px;fill:#000000;fill-opacity:1;stroke:none;stroke-width:0.44627687"
       x="-13.094031"
       y="-3.6797841"
       id="text12"
       transform="scale(0.95511593,1.0469933)"><tspan
         sodipodi:role="line"
         id="tspan10"
         x="-13.094031"
         y="31.06385"
         style="font-size:38.08229828px;stroke-width:0.44627687" /></text>
    <path
       style="fill:#87939a;fill-opacity:1;stroke-width:0.11531623"
       d="M 0.64898989,13.159944 C 1.0124396,11.773049 1.6939657,8.7164567 2.5788141,4.504831 2.6276643,4.2723175 2.7036512,4.2554737 3.7037238,4.2554737 c 0.5898862,0 1.0719185,0.032577 1.0711826,0.072394 -7.358e-4,0.039817 -0.072229,0.3511112 -0.1588729,0.6917655 -0.086644,0.3406543 -0.1311961,0.6193716 -0.099003,0.6193716 0.032192,0 0.3252204,-0.2551101 0.6511735,-0.5669112 C 5.5463227,4.7103911 5.9749382,4.4328124 6.3522992,4.3052525 7.0649239,4.064363 8.2527303,4.0451058 8.7583973,4.2662445 9.1828411,4.451862 9.7357874,5.0889949 9.7357874,5.3924428 c 0,0.373969 0.1253858,0.35054 0.5102606,-0.095345 0.20867,-0.2417494 0.64841,-0.5929535 0.977202,-0.7804532 0.49434,-0.2819095 0.765482,-0.3493486 1.566704,-0.3896766 1.176044,-0.059194 1.874664,0.1983028 2.240097,0.8256521 0.342124,0.5873316 0.289189,1.2943759 -0.280381,3.7451248 -0.280085,1.205144 -0.627777,2.7486041 -0.772649,3.4299141 l -0.263407,1.238744 -1.152415,0.03373 c -1.062421,0.03108 -1.147542,0.01727 -1.090017,-0.176964 0.34189,-1.154371 1.307321,-5.6473057 1.307599,-6.0853317 4.87e-4,-0.7637377 -0.345386,-1.1448989 -1.038905,-1.1448989 -0.937457,0 -1.7510355,0.7531144 -2.2146589,2.0500709 C 9.3989961,8.3961005 9.0716705,9.7383129 8.7978255,11.0257 l -0.4978994,2.340707 -1.1507766,0.03373 C 6.0882827,13.431212 6.0032535,13.417384 6.0608392,13.223163 6.3672559,12.189673 7.2782983,8.0082532 7.3317646,7.3899834 7.3952891,6.655403 7.3807554,6.584668 7.1075435,6.2987098 6.5301599,5.6943891 5.3118542,6.0187143 4.6687251,6.9479481 4.1655033,7.6750349 3.7881173,9.0093705 2.911806,13.159944 c -0.053601,0.253879 -0.1056395,0.265445 -1.1942109,0.265445 -1.12578861,0 -1.13741117,-0.0029 -1.06860521,-0.265445 z"
       id="path22"
       inkscape:connector-curvature="0" />
    <text
       xml:space="preserve"
       style="font-style:normal;font-weight:normal;font-size:40px;line-height:1.25;font-family:sans-serif;letter-spacing:0px;word-spacing:0px;fill:#000000;fill-opacity:1;stroke:none"
       x="-51.859295"
       y="11.477387"
       id="text30"><tspan
         sodipodi:role="line"
         id="tspan28"
         x="-51.859295"
         y="47.9706"></tspan></text>
  </g>
</svg>

<svg xmlns="http://www.w3.org/2000/svg" width="16" height="16" viewBox="0 0 16 16"><path d="M.649 13.16c.363-1.387 1.045-4.444 1.93-8.655.049-.233.125-.25 1.125-.25.59 0 1.072.033 1.07.073a8.4 8.4 0 01-.158.692c-.087.34-.131.619-.099.619s.325-.255.651-.567c.378-.362.807-.64 1.184-.767.713-.24 1.9-.26 2.406-.039.425.186.978.823.978 1.126 0 .374.125.351.51-.095.209-.242.648-.593.977-.78.495-.282.766-.35 1.567-.39 1.176-.06 1.875.198 2.24.826.342.587.29 1.294-.28 3.745-.28 1.205-.628 2.748-.773 3.43l-.263 1.238-1.153.034c-1.062.031-1.147.017-1.09-.177.342-1.154 1.308-5.647 1.308-6.085 0-.764-.346-1.145-1.04-1.145-.937 0-1.75.753-2.214 2.05-.126.353-.453 1.695-.727 2.983l-.498 2.34-1.15.034c-1.062.031-1.147.017-1.09-.177.307-1.033 1.218-5.215 1.272-5.833.063-.735.049-.805-.224-1.091-.578-.605-1.796-.28-2.44.649-.502.727-.88 2.061-1.756 6.212-.054.254-.106.265-1.194.265-1.126 0-1.138-.003-1.069-.265z" fill="#87939a" stroke-width=".115"/></svg>
